material/.icons/material/power-socket-fr.svg

<svg xmlns="http://www.w3.org/2000/svg" viewBox="0 0 24 24"><path d="M4.22 2A2.22 2.22 0 002 4.22v15.56C2 21 3 22 4.22 22h15.56A2.22 2.22 0 0022 19.78V4.22C22 3 21 2 19.78 2H4.22M12 4a8 8 0 018 8 8 8 0 01-8 8 8 8 0 01-8-8 8 8 0 018-8m0 2a1.5 1.5 0 00-1.5 1.5A1.5 1.5 0 0012 9a1.5 1.5 0 001.5-1.5A1.5 1.5 0 0012 6m-4.5 4.5A1.5 1.5 0 006 12c0 .83.66 1.5 1.5 1.5A1.5 1.5 0 009 12a1.5 1.5 0 00-1.5-1.5m9 0A1.5 1.5 0 0015 12a1.5 1.5 0 001.5 1.5A1.5 1.5 0 0018 12a1.5 1.5 0 00-1.5-1.5z"/></svg>

<?xml version="1.0" encoding="UTF-8"?><!DOCTYPE svg PUBLIC "-//W3C//DTD SVG 1.1//EN" "http://www.w3.org/Graphics/SVG/1.1/DTD/svg11.dtd"><svg xmlns="http://www.w3.org/2000/svg" xmlns:xlink="http://www.w3.org/1999/xlink" version="1.1" id="mdi-power-socket-fr" width="24" height="24" viewBox="0 0 24 24"><path d="M4.22 2A2.22 2.22 0 0 0 2 4.22V19.78C2 21 3 22 4.22 22H19.78A2.22 2.22 0 0 0 22 19.78V4.22C22 3 21 2 19.78 2H4.22M12 4A8 8 0 0 1 20 12A8 8 0 0 1 12 20A8 8 0 0 1 4 12A8 8 0 0 1 12 4M12 6A1.5 1.5 0 0 0 10.5 7.5A1.5 1.5 0 0 0 12 9A1.5 1.5 0 0 0 13.5 7.5A1.5 1.5 0 0 0 12 6M7.5 10.5A1.5 1.5 0 0 0 6 12C6 12.83 6.66 13.5 7.5 13.5A1.5 1.5 0 0 0 9 12A1.5 1.5 0 0 0 7.5 10.5M16.5 10.5A1.5 1.5 0 0 0 15 12A1.5 1.5 0 0 0 16.5 13.5A1.5 1.5 0 0 0 18 12A1.5 1.5 0 0 0 16.5 10.5Z" /></svg>
